!!!COM: Vivaldi, Antonio
!!!OTL: Concerto a violino solo, No. 10
!!!XEN: Violin Concerto No. 10
!!!OTP: La Caccia
!!!OTA: The Hunt
!!!OPR: Il Cimento dell'armonia e dell'inventione
!!!XEN: The Contest of Harmony and Invention
!!!OPS: Opus 8
!!!ONM: No. 10
!!!OMV: Movement 1.
!!!YEC: Copyright 1996, Center for Computer Assisted Research in the Humanities
!!!YEM: Rights to all derivative electronic formats reserved.
!!!YEM: Refer to licensing agreement for important restrictions.
!!!OMD: Allegro
**kern	**kern	**kern	**kern	**kern	**Bnum
*Icello	*Iviola	*Ivioln	*Ivioln	*Ivioln	*Icemba
*Icemba	*	*	*	*	*
*ICstr	*ICstr	*ICstr	*ICstr	*ICstr	*ICklav
*ICklav	*	*	*	*	*
!cello	!viola 	!violino 2	!violino 1	!violino principale	!continuo
!basso continuo	!	!	!	!	!
*clefF4	*clefC3	*clefG2	*clefG2	*clefG2	*
*k[b-e-]	*k[b-e-]	*k[b-e-]	*k[b-e-]	*k[b-e-]	*k[b-e-]
*B-:	*B-:	*B-:	*B-:	*B-:	*B-:
*M3/4	*M3/4	*M3/4	*M3/4	*M3/4	*M3/4
*>Selfridge-Field[S1,etc1,S5,etc2,S11,etc3,S19,etc4,S70,etc5,S83,etc6,S150,etc7]	*>Selfridge-Field[S1,etc1,S5,etc2,S11,etc3,S19,etc4,S70,etc5,S83,etc6,S150,etc7]	*>Selfridge-Field[S1,etc1,S5,etc2,S11,etc3,S19,etc4,S70,etc5,S83,etc6,S150,etc7]	*>Selfridge-Field[S1,etc1,S5,etc2,S11,etc3,S19,etc4,S70,etc5,S83,etc6,S150,etc7]	*>Selfridge-Field[S1,etc1,S5,etc2,S11,etc3,S19,etc4,S70,etc5,S83,etc6,S150,etc7]	*>Selfridge-Field[S1,etc1,S5,etc2,S11,etc3,S19,etc4,S70,etc5,S83,etc6,S150,etc7]
*>Dresden[S1,etc1,S5,etc2,S11,etc3,S19,etc4,A70,etc5,D83,etc6,D150,etc7]	*>Dresden[S1,etc1,S5,etc2,S11,etc3,S19,etc4,A70,etc5,D83,etc6,D150,etc7]	*>Dresden[S1,etc1,S5,etc2,S11,etc3,S19,etc4,A70,etc5,D83,etc6,D150,etc7]	*>Dresden[S1,etc1,S5,etc2,S11,etc3,S19,etc4,A70,etc5,D83,etc6,D150,etc7]	*>Dresden[S1,etc1,S5,etc2,S11,etc3,S19,etc4,A70,etc5,D83,etc6,D150,etc7]	*>Dresden[S1,etc1,S5,etc2,S11,etc3,S19,etc4,A70,etc5,D83,etc6,D150,etc7]
*>Amsterdam[A1,etc1,A5,etc2,A11,etc3,A19,etc4,A70,etc5,S83,etc6,S150,etc7]	*>Amsterdam[A1,etc1,A5,etc2,A11,etc3,A19,etc4,A70,etc5,S83,etc6,S150,etc7]	*>Amsterdam[A1,etc1,A5,etc2,A11,etc3,A19,etc4,A70,etc5,S83,etc6,S150,etc7]	*>Amsterdam[A1,etc1,A5,etc2,A11,etc3,A19,etc4,A70,etc5,S83,etc6,S150,etc7]	*>Amsterdam[A1,etc1,A5,etc2,A11,etc3,A19,etc4,A70,etc5,S83,etc6,S150,etc7]	*>Amsterdam[A1,etc1,A5,etc2,A11,etc3,A19,etc4,A70,etc5,S83,etc6,S150,etc7]
*>S1	*>S1	*>S1	*>S1	*>S1	*>S1
!! Selfridge-Field edition.
=1-	=1-	=1-	=1-	=1-	=1-
8BB-/L	8d\L	2.r	4b-\	4b-\	.
8BB-/JJ	8d\JJ	.	.	.	.
4BB-/	4d\	.	8bb-\L	8bb-\L	.
.	.	.	8b-\J	8b-\J	.
4B-\	4d\	.	8b-\L	8b-\L	.
.	.	.	8b-\J	8b-\J	.
*>A1	*>A1	*>A1	*>A1	*>A1	*>A1
!! Amsterdam print.
=1-	=1-	=1-	=1-	=1-	=1-
8BB-/L	8d\L	2.r	4b-\	4b-\	.
16BB-/L	16d\L	.	.	.	.
16BB-/JJ	16d\JJ	.	.	.	.
4BB-/	4d\	.	8bb-\L	8bb-\L	.
.	.	.	8b-\J	8b-\J	.
4B-\	4d\	.	8b-\L	8b-\L	.
.	.	.	8b-\J	8b-\J	.
*>etc1	*>etc1	*>etc1	*>etc1	*>etc1	*>etc1
=2	=2	=2	=2	=2	=2
8BB-/L	8d\L	2.r	4b-\	4b-\	.
16BB-/L	16d\L	.	.	.	.
16BB-/JJ	16d\JJ	.	.	.	.
4BB-/	4d\	.	8bb-\L	8bb-\L	.
.	.	.	8b-\J	8b-\J	.
4B-\	4d\	.	8b-\L	8b-\L	.
.	.	.	8b-\J	8b-\J	.
=3	=3	=3	=3	=3	=3
8BB-/L	8d\L	2.r	4b-\	4b-\	.
16BB-/L	16d\L	.	.	.	.
16BB-/JJ	16d\JJ	.	.	.	.
4BB-/	4d\	.	8b-\L	8b-\L	.
.	.	.	8ff\J	8ff\J	.
4B-\	4d\	.	8ee-\L	8ee-\L	.
.	.	.	8dd\J	8dd\J	.
=4	=4	=4	=4	=4	=4
8FF/L	8A/L	4f/	4cc\	4cc\	.
16FF/L	16A/L	.	.	.	.
16FF/JJ	16A/JJ	.	.	.	.
4FF/	4A/	8ff\L	4f/	4f/	.
.	.	8f\J	.	.	.
4F\	4A/	8f/L	4r	4r	.
.	.	8f/J	.	.	.
=5	=5	=5	=5	=5	=5
8FF/L	8A/L	4f/	4f/	4f/	.
16FF/L	16A/L	.	.	.	.
16FF/JJ	16A/JJ	.	.	.	.
4FF/	4A/	8ff\L	8r	8r	7
.	.	8f\J	16g/LL	16g/LL	.
.	.	.	16a/JJ	16a/JJ	.
*>S5	*>S5	*>S5	*>S5	*>S5	*>S5
!! Selfridge-Field edition.
4F\	4A/	8f/L	16b-\LL	16b-\LL	.
.	.	.	16cc\	16cc\	.
.	.	8f/J	16dd\	16dd\	.
.	.	.	16ee-\JJ	16ee-\JJ	.
*>A5	*>A5	*>A5	*>A5	*>A5	*>A5
!! Amsterdam print.
4F\	4A/	8f/L	16b-\LL	16b-\LL	.
.	.	.	16cc\	16cc\	.
.	.	8f/J	16dd\	16dd\	.
.	.	.	16een\JJ	16een\JJ	.
*>etc2	*>etc2	*>etc2	*>etc2	*>etc2	*>etc2
=6	=6	=6	=6	=6	=6
8FF/L	8A/L	4f/	4ff\	4ff\	.
16FF/L	16A/L	.	.	.	.
16FF/JJ	16A/JJ	.	.	.	.
4FF/	4A/	8f\L	4f/	4f/	7
.	.	8ee-\J	.	.	.
4F\	4A/	8dd\L	4r	4r	.
.	.	8cc\J	.	.	.
=7	=7	=7	=7	=7	=7
8BB-/L	8F/L	4dd\	4b-\	4b-\	.
16BB-/L	16d/L	.	.	.	.
16BB-/JJ	16d/JJ	.	.	.	.
4BB-/	4d\	4b-\	8bb-\L	8bb-\L	.
.	.	.	8b-\J	8b-\J	.
4B-\	4d\	4r	8b-\L	8b-\L	.
.	.	.	8b-\J	8b-\J	.
=8	=8	=8	=8	=8	=8
8BB-/L	8d\L	4b-\	4b-\	4b-\	.
16BB-/L	16d\L	.	.	.	.
16BB-/JJ	16d\JJ	.	.	.	.
4BB-/	4d\	8r	8aa-\L	8aa-\L	b7
.	.	16cc\LL	8b-\J	8b-\J	.
.	.	16dd\JJ	.	.	.
4B-\	4d\	16ee-\LL	8b-\L	8b-\L	.
.	.	16ff\	.	.	.
.	.	16gg\	8b-\J	8b-\J	.
.	.	16aa-\JJ	.	.	.
=9	=9	=9	=9	=9	=9
8BB-/L	8d\L	4bb-\	4b-\	4b-\	.
16BB-/L	16d\L	.	.	.	.
16BB-/JJ	16d\JJ	.	.	.	.
4BB-/	4d\	4b-\	8b-\L	8b-\L	b7
.	.	.	8aa-\J	8aa-\J	.
4B-\	4d\	4r	8gg\L	8gg\L	.
.	.	.	8ff\J	8ff\J	.
=10	=10	=10	=10	=10	=10
8EE-/L	8B-/L	4e-/	4gg\	4gg\	.
16EE-/L	16G/L	.	.	.	.
16EE-/JJ	16G/JJ	.	.	.	.
4EE-/	4G/	8ee-/L	4ee-\	4ee-\	.
.	.	8e-/J	.	.	.
4E-\	4G/	8e-/L	4r	4r	.
.	.	8e-/J	.	.	.
*>S11	*>S11	*>S11	*>S11	*>S11	*>S11
!! Selfridge-Field edition.
=11	=11	=11	=11	=11	=11
8EE-/L	8G/L	4e-/	4e-/	4e-/	.
16EE-/L	16G/L	.	.	.	.
16EE-/JJ	16G/JJ	.	.	.	.
4EE-/	4G/	8dd-/L	8r	8r	b7
.	.	8e-/J	16f/LL	16f/LL	.
.	.	.	16g/JJ	16g/JJ	.
4E-\	4G/	8e-/L	16a-\LL	16a-\LL	6 b4
.	.	.	16b-\	16b-\	.
.	.	8e-/J	16cc\	16cc\	.
.	.	.	16dd\JJ	16dd\JJ	.
*>A11	*>A11	*>A11	*>A11	*>A11	*>A11
!! Amsterdam print.
=11	=11	=11	=11	=11	=11
8EE-/L	8G/L	4e-/	4e-/	4e-/	.
16EE-/L	16G/L	.	.	.	.
16EE-/JJ	16G/JJ	.	.	.	.
4EE-/	4G/	8dd-/L	8r	8r	b7
.	.	8e-/J	16f/LL	16f/LL	.
.	.	.	16g/JJ	16g/JJ	.
4E-\	4G/	8e-/L	16anx\LL	16anx\LL	6 b4
.	.	.	16b-\	16b-\	.
.	.	8e-/J	16cc\	16cc\	.
.	.	.	16dd\JJ	16dd\JJ	.
*>etc3	*>etc3	*>etc3	*>etc3	*>etc3	*>etc3
=12	=12	=12	=12	=12	=12
8EE-/L	8G/L	4e-/	4ee-\	4ee-\	.
16EE-/L	16G/L	.	.	.	.
16EE-/JJ	16G/JJ	.	.	.	.
4EE-/	4G/	8e-/L	4e-/	4e-/	b7
.	.	8dd-/J	.	.	.
4E-\	4G/	8cc\L	4r	4r	.
.	.	8b-\J	.	.	.
=13	=13	=13	=13	=13	=13
8AA-/L	8e-\L	4cc\	4cc\	4cc\	.
16AA-/L	16e-\L	.	.	.	.
16AA-/JJ	16e-\JJ	.	.	.	.
4AA-/	4e-\	4a-/	8ccc\L	8ccc\L	.
.	.	.	8cc\J	8cc\J	.
4F\	4a-\	4r	8cc\L	8cc\L	.
.	.	.	8cc\J	8cc\J	.
=14	=14	=14	=14	=14	=14
8En\L	8g\L	4cc\	4cc\	4cc\	6
16E\L	16g\L	.	.	.	.
16E\JJ	16g\JJ	.	.	.	.
4E\	4g\	8r	8bb-\L	8bb-\L	6 5
.	.	16dd\LL	8cc\J	8cc\J	.
.	.	16een\JJ	.	.	.
4en\	4g\	16ff\LL	8cc\L	8cc\L	.
.	.	16gg\	.	.	.
.	.	16aa\	8cc\J	8cc\J	.
.	.	16bb-\JJ	.	.	.
=15	=15	=15	=15	=15	=15
8En\L	8g\L	4ccc\	4cc\	4cc\	6
16E\L	16g\L	.	.	.	.
16E\JJ	16g\JJ	.	.	.	.
4E\	4g\	4cc\	8cc\L	8cc\L	6 5
.	.	.	8bb-\J	8bb-\J	.
4en\	4en\	4r	8aa\L	8aa\L	.
.	.	.	8gg\J	8gg\J	.
=16	=16	=16	=16	=16	=16
8F/L	8c/L	4f/	4aa\	4aa\	.
16FF/L	16A/L	.	.	.	.
16FF/JJ	16A/JJ	.	.	.	.
4FF/	4A/	8ff\L	4ff\	4ff\	.
.	.	8f\J	.	.	.
4F\	4A/	8f/L	4r	4r	.
.	.	8f/J	.	.	.
=17	=17	=17	=17	=17	=17
8FF/L	8A/L	4f/	4f/	4f/	.
16FF/L	16A/L	.	.	.	.
16FF/JJ	16A/JJ	.	.	.	.
4FF/	4A/	8ee-\L	8r	8r	7
.	.	8f\J	16g/LL	16g/LL	.
.	.	.	16a/JJ	16a/JJ	.
4F\	4A/	8f/L	16b-\LL	16b-\LL	.
.	.	.	16cc\	16cc\	.
.	.	8f/J	16dd\	16dd\	.
.	.	.	16ee-\JJ	16ee-\JJ	.
=18	=18	=18	=18	=18	=18
8FF/L	8A/L	4f/	4ff\	4ff\	.
16FF/L	16A/L	.	.	.	.
16FF/JJ	16A/JJ	.	.	.	.
4FF/	4A/	8f\L	4f/	4f/	.
.	.	8ee-\J	.	.	.
4F\	4A/	8dd\L	4r	4r	.
.	.	8cc\J	.	.	.
*>S19	*>S19	*>S19	*>S19	*>S19	*>S19
!! Selfridge-Field edition.
=19	=19	=19	=19	=19	=19
[2.BB-/	[2.B-/	4dd\	8r	8r	.
.	.	.	8bb-\L	8bb-\L	.
.	.	4r	8aa\	8aa\	.
.	.	.	8gg\	8gg\	.
.	.	4r	8ff\	8ff\	.
.	.	.	8ee-\J	8ee-\J	.
=20	=20	=20	=20	=20	=20
2.BB-_/	2.B-_/	8r	8dd\L	8dd\L	.
.	.	8bb-\L	8gg\	8gg\	.
.	.	8aa\	8ff\	8ff\	.
.	.	8gg\	8ee-\	8ee-\	.
.	.	8ff\	8dd\	8dd\	.
.	.	8ee-\J	8cc\J	8cc\J	.
=21	=21	=21	=21	=21	=21
2.BB-/]	2.B-/]	8dd\L	8b-\L	8b-\L	.
.	.	8ff\	8dd\	8dd\	.
.	.	8ee-\	8cc\	8cc\	.
.	.	8dd\	8b-\	8b-\	.
.	.	8cc\	8a\	8a\	.
.	.	8b-\J	8g\J	8g\J	.
*>A19	*>A19	*>A19	*>A19	*>A19	*>A19
!! Amsterdam print.
=19	=19	=19	=19	=19	=19
8BB-/L	8B-/L	4dd\	8r	8r	.
8BB-/	8B-/	.	8bb-\L	8bb-\L	.
8BB-/	8B-/	4r	8aa\	8aa\	.
8BB-/	8B-/	.	8gg\	8gg\	.
8BB-/	8B-/	4r	8ff\	8ff\	.
8BB-/J	8B-/J	.	8ee-\J	8ee-\J	.
=20	=20	=20	=20	=20	=20
8BB-/L	8B-/L	8r	8dd\L	8dd\L	.
8BB-/	8B-/	8bb-\L	8gg\	8gg\	.
8BB-/	8B-/	8aa\	8ff\	8ff\	.
8BB-/	8B-/	8gg\	8ee-\	8ee-\	.
8BB-/	8B-/	8ff\	8dd\	8dd\	.
8BB-/J	8B-/J	8ee-\J	8cc\J	8cc\J	.
=21	=21	=21	=21	=21	=21
8BB-/L	8B-/L	8dd\L	8b-\L	8b-\L	.
8BB-/	8B-/	8ff\	8dd\	8dd\	.
8BB-/	8B-/	8ee-\	8cc\	8cc\	.
8BB-/	8B-/	8dd\	8b-\	8b-\	.
8BB-/	8B-/	8cc\	8a\	8a\	.
8BB-/J	8B-/J	8b-\J	8g\J	8g\J	.
*>etc4	*>etc4	*>etc4	*>etc4	*>etc4	*>etc4
=22	=22	=22	=22	=22	=22
4F\	4c\	4a/	4f/	4f/	.
8F\L	8a\L	8ff\L	8ff\L	8ff\L	.
8F\J	8f\J	8f\J	8f\J	8f\J	.
8F\L	8f\L	8f/L	8f/L	8f/L	.
8F\J	8f\J	8f/J	8f/J	8f/J	.
=23	=23	=23	=23	=23	=23
4F\	4f\	4f/	4f/	4f/	7 5
8F\L	8cc\L	8ee-\L	8ee-\L	8ee-\L	.
8F\J	8f\J	8f\J	8f\J	8f\J	.
8F\L	8f\L	8f/L	8f/L	8f/L	.
8F\J	8f\J	8f/J	8f/J	8f/J	.
=24	=24	=24	=24	=24	=24
4F\	4f\	4f/	4f/	4f/	6 4
8F\L	8b-\L	8dd/L	8dd/L	8dd/L	.
8F\J	8f\J	8f/J	8f/J	8f/J	.
8F\L	8f\L	8f/L	8f/L	8f/L	.
8F\J	8f\J	8f/J	8f/J	8f/J	.
=25	=25	=25	=25	=25	=25
4F\	4f\	4f/	4f/	4f/	5 3
8F\L	8a\L	8cc/L	8cc/L	8cc/L	.
8F\J	8f\J	8f/J	8f/J	8f/J	.
8F\L	8f\L	8f/L	8f/L	8f/L	.
8F\J	8f\J	8f/J	8f/J	8f/J	.
=26	=26	=26	=26	=26	=26
4F\	4f\	4f/	4f/	4f/	.
4r	4r	4r	4r	4r	.
4r	4r	4r	4r	4r	.
=27	=27	=27	=27	=27	=27
8BB-\L	8d\L	4b-\	4b-\	4b-\	.
8B-\	8dd\	.	.	.	.
8F\	8a\	8r	8r	8r	.
8E-\	8g\	16cc\LL	16cc\LL	16cc\LL	.
.	.	16dd\JJ	16dd\JJ	16dd\JJ	.
8D\	8f\	16ee-\LL	16ee-\LL	16ee-\LL	6
.	.	16ff\	16ff\	16ff\	.
8C\J	8e-\J	16gg\	16gg\	16gg\	.
.	.	16aa\JJ	16aa\JJ	16aa\JJ	.
=28	=28	=28	=28	=28	=28
4BB-/	4d\	8bb-\L	8bb-\L	8bb-\L	.
.	.	8b-\J	8b-\J	8b-\J	.
8F\L	4a\	4cc\	4cc\	4cc\	.
8F\J	.	.	.	.	.
8FF/L	4f\	4a/	4a/	4a/	.
8FF/J	.	.	.	.	.
=29	=29	=29	=29	=29	=29
8BB-\L	8d\L	4B-/	4B-/	4B-/	.
8B-\	8dd\	.	.	.	.
8F\	8a\	8r	8r	8r	.
8E-\	8g\	16c/LL	16c/LL	16c/LL	.
.	.	16d/JJ	16d/JJ	16d/JJ	.
8D\	8f\	16e-/LL	16e-/LL	16e-/LL	6
.	.	16f/	16f/	16f/	.
8C\J	8e-\J	16g/	16g/	16g/	.
.	.	16a/JJ	16a/JJ	16a/JJ	.
=30	=30	=30	=30	=30	=30
4BB-/	4d\	8b-/L	8b-/L	8b-/L	.
.	.	8B-/J	8B-/J	8B-/J	.
8F\L	4a\	4c/	4c/	4c/	.
8F\J	.	.	.	.	.
8FF/L	4f\	4A/	4A/	4A/	.
8FF/J	.	.	.	.	.
=31	=31	=31	=31	=31	=31
4BB-/	4d\	4B-/	4B-/	12B-`/L	.
.	.	.	.	12c`/	.
.	.	.	.	12B-`/J	.
4r	4r	4r	4r	12d`/L	.
.	.	.	.	12e-`/	.
.	.	.	.	12d`/J	.
4r	4r	4r	4r	12f`/L	.
.	.	.	.	12g`/	.
.	.	.	.	12f`/J	.
*>S32	*>S32	*>S32	*>S32	*>S32	*>S32
!! Selfridge-Field edition.
=32	=32	=32	=32	=32	=32
2.r	2.r	2.r	2.r	12b-`\L	.
.	.	.	.	12cc`\	.
.	.	.	.	12b-`\J	.
.	.	.	.	12dd`\L	.
.	.	.	.	12ee-`\	.
.	.	.	.	12dd`\J	.
.	.	.	.	12ff`\L	.
.	.	.	.	12gg`\	.
.	.	.	.	12ff`\J	.
*>D32	*>D32	*>D32	*>D32	*>D32	*>D32
!! Dresden manuscript.
=32	=32	=32	=32	=32	=32
2.r	2.r	2.r	2.r	12b-\L	.
.	.	.	.	12cc\	.
.	.	.	.	12b-\J	.
.	.	.	.	12dd\L	.
.	.	.	.	12ee-\	.
.	.	.	.	12dd\J	.
.	.	.	.	12ff\L	.
.	.	.	.	12gg\	.
.	.	.	.	12ff\J	.
=33	=33	=33	=33	=33	=33
4BB-/	4b-\	4dd\	4ff\	4bb-\	.
8BB-/L	8b-\L	8ff\L	8bb-\L	4b-\	.
8BB-/J	8b-\J	8dd\J	8ff\J	.	.
8BB-/L	8b-\L	8dd\L	8ff\L	4r	.
8BB-/J	8b-\J	8dd\J	8ff\J	.	.
=34	=34	=34	=34	=34	=34
4BB-/	4b-\	4dd\	4ff\	4b-\ 4dd/	.
4BB-/	4r	4r	4r	8b-\L 8dd/L	.
.	.	.	.	8b-\J 8dd/J	.
4AA/	4r	4r	4r	8cc\L 8ee-/L	6 5
.	.	.	.	8cc\J 8ee-/J	.
=35	=35	=35	=35	=35	=35
4BB-/	2.r	2.r	2.r	4b-\ 4dd/	.
4BB-/	.	.	.	8b-\L 8dd/L	.
.	.	.	.	8b-\J 8dd/J	.
4AA/	.	.	.	8cc\L 8ee-/L	6 5
.	.	.	.	8cc\J 8ee-/J	.
=36	=36	=36	=36	=36	=36
4BB-/	2.r	2.r	2.r	4b-\ 4dd/	.
4BB-/	.	.	.	8b-\L 8dd/L	.
.	.	.	.	8b-\J 8dd/J	.
4AA/	.	.	.	8cc\L 8ee-/L	6 5
.	.	.	.	8cc\J 8ee-/J	.
=37	=37	=37	=37	=37	=37
4BB-/	2.r	2.r	2.r	4b-\ 4dd/	.
4BB-/	.	.	.	4f\ 4b-/	.
4BB-/	.	.	.	4d\ 4b-/	.
=38	=38	=38	=38	=38	=38
4BB-/	2.r	2.r	2.r	4b-\ 4dd/	.
4BB-/	.	.	.	8b-\L 8dd/L	.
.	.	.	.	8b-\J 8dd/J	.
4AA/	.	.	.	8cc\L 8ee-/L	6 5
.	.	.	.	8cc\J 8ee-/J	.
=39	=39	=39	=39	=39	=39
4BB-/	2.r	2.r	2.r	4b-\ 4dd/	.
4BB-/	.	.	.	8b-\L 8dd/L	.
.	.	.	.	8b-\J 8dd/J	.
4AA/	.	.	.	8cc\L 8ee-/L	6 5
.	.	.	.	8cc\J 8ee-/J	.
=40	=40	=40	=40	=40	=40
4BB-/	2.r	2.r	2.r	4b-\ 4dd/	.
4BB-/	.	.	.	8b-\L 8dd/L	.
.	.	.	.	8b-\J 8dd/J	.
4AA/	.	.	.	8cc\L 8ee-/L	6 5
.	.	.	.	8cc\J 8ee-/J	.
=41	=41	=41	=41	=41	=41
4BB-/	2.r	2.r	2.r	4b-\ 4dd/	.
4BB-/	.	.	.	4f\ 4b-/	.
4BB-/	.	.	.	4d\ 4b-/	.
=42	=42	=42	=42	=42	=42
2BB-/	2.r	2.r	2.r	(12b-\L	.
.	.	.	.	12cc\	.
.	.	.	.	12b-\J)	.
.	.	.	.	(12dd\L	.
.	.	.	.	12ee-\	.
.	.	.	.	12dd\J)	.
4D\	.	.	.	(12ff\L	6
.	.	.	.	12gg\	.
.	.	.	.	12ff\J)	.
=43	=43	=43	=43	=43	=43
2E-\	2.r	2.r	2.r	(12e-/L	.
.	.	.	.	12f/	.
.	.	.	.	12e-/J)	.
.	.	.	.	(12g/L	.
.	.	.	.	12a/	.
.	.	.	.	12g/J)	.
4r	.	.	.	(12b-\L	.
.	.	.	.	12cc\	.
.	.	.	.	12b-\J)	.
=44	=44	=44	=44	=44	=44
2E-\	2.r	2.r	2.r	(12cc\L	6
.	.	.	.	12dd\	.
.	.	.	.	12cc\J)	.
.	.	.	.	(12ee-\L	.
.	.	.	.	12ff\	.
.	.	.	.	12ee-\J)	.
4r	.	.	.	(12gg\L	.
.	.	.	.	12aa\	.
.	.	.	.	12gg\J)	.
=45	=45	=45	=45	=45	=45
2F\	2.r	2.r	2.r	(12f/L	.
.	.	.	.	12g/	.
.	.	.	.	12f/J)	.
.	.	.	.	(12a/L	.
.	.	.	.	12b-/	.
.	.	.	.	12a/J)	.
4r	.	.	.	(12cc\L	.
.	.	.	.	12dd\	.
.	.	.	.	12cc\J)	.
=46	=46	=46	=46	=46	=46
2F\	2.r	2.r	2.r	(12dd\L	6
.	.	.	.	12ee-\	.
.	.	.	.	12dd\J)	.
.	.	.	.	(12ff\L	.
.	.	.	.	12gg\	.
.	.	.	.	12ff\J)	.
4r	.	.	.	(12aa\L	.
.	.	.	.	12bb-\	.
.	.	.	.	12aa\J)	.
=47	=47	=47	=47	=47	=47
2G\	2.r	2.r	2.r	(12g/L	.
.	.	.	.	12a/	.
.	.	.	.	12g/J)	.
.	.	.	.	(12b-\L	.
.	.	.	.	12cc\	.
.	.	.	.	12b-\J)	.
4r	.	.	.	(12dd\L	.
.	.	.	.	12ee-\	.
.	.	.	.	12dd\J)	.
=48	=48	=48	=48	=48	=48
2G\	2.r	2.r	2.r	(12ee-\L	6
.	.	.	.	12ff\	.
.	.	.	.	12ee-\J)	.
.	.	.	.	(12gg\L	.
.	.	.	.	12aa\	.
.	.	.	.	12gg\J)	.
4r	.	.	.	(12bb-\L	.
.	.	.	.	12ccc\	.
.	.	.	.	12bb-\J)	.
=49	=49	=49	=49	=49	=49
4c\	2.r	2.r	2.r	(12eee-\L	.
.	.	.	.	12ddd\	.
.	.	.	.	12ccc\J)	.
4B-\	.	.	.	(12ddd\L	6
.	.	.	.	12ccc\	.
.	.	.	.	12bb-\J)	.
4A\	.	.	.	(12ccc\L	6
.	.	.	.	12bb-\	.
.	.	.	.	12aa\J)	.
=50	=50	=50	=50	=50	=50
4G\	2.r	2.r	2.r	(12bb-\L	n6
.	.	.	.	12aa\	.
.	.	.	.	12gg\J)	.
4F\	.	.	.	(12aa\L	.
.	.	.	.	12gg\	.
.	.	.	.	12ff\J)	.
4C/	.	.	.	(12een\L	n
.	.	.	.	12ff\	.
.	.	.	.	12gg\J)	.
=51	=51	=51	=51	=51	=51
4F\	2.r	2.r	2.r	2.ff\	.
8F\L	.	.	.	.	.
8F\J	.	.	.	.	.
8F\L	.	.	.	.	.
8F\J	.	.	.	.	.
=52	=52	=52	=52	=52	=52
4c\	2.r	2.r	2.r	(12eee-\L	.
.	.	.	.	12ddd\	.
.	.	.	.	12ccc\J)	.
4B-\	.	.	.	(12ddd\L	6 5
.	.	.	.	12ccc\	.
.	.	.	.	12bb-\J)	.
4A\	.	.	.	(12ccc\L	6
.	.	.	.	12bb-\	.
.	.	.	.	12aa\J)	.
=53	=53	=53	=53	=53	=53
4G\	2.r	2.r	2.r	(12bb-\L	n6
.	.	.	.	12aa\	.
.	.	.	.	12gg\J)	.
4F\	.	.	.	(12aa\L	.
.	.	.	.	12gg\	.
.	.	.	.	12ff\J)	.
4C/	.	.	.	(12een\L	n
.	.	.	.	12ff\	.
.	.	.	.	12gg\J)	.
=54	=54	=54	=54	=54	=54
4F\	2.r	2.r	2.r	2.ff\	.
8F\L	.	.	.	.	.
8F\J	.	.	.	.	.
8F\L	.	.	.	.	.
8F\J	.	.	.	.	.
=55	=55	=55	=55	=55	=55
*	*	*	*	*^	*
4F\	2.r	2.r	2.r	4cc\	4ff/	.
4r	.	.	.	8cc\L	8ff/L	.
.	.	.	.	8cc\J	8ff/J	.
4r	.	.	.	8a\L	8ff/L	.
.	.	.	.	8cc\J	8ff/J	.
=56	=56	=56	=56	=56	=56	=56
4F\	2.r	2.r	2.r	4cc\	4aa/	.
4r	.	.	.	8cc\L	8ff/L	.
.	.	.	.	8cc\J	8ff/J	.
4r	.	.	.	8a\L	8ff/L	.
.	.	.	.	8cc\J	8ff/J	.
=57	=57	=57	=57	=57	=57	=57
2.F\	2.r	2.r	2.r	[2.cc\	(4aa/	.
.	.	.	.	.	4gg/)	.
.	.	.	.	.	4ff'/	.
=58	=58	=58	=58	=58	=58	=58
2c\	2.r	2.r	2.r	2.cc_\	(4gg/	4
.	.	.	.	.	4ff/)	.
4C/	.	.	.	.	4een'/	n
=59	=59	=59	=59	=59	=59	=59
4F\	2.r	2.r	2.r	2.cc/]	2.f\ 2.ff/	.
8F\L	.	.	.	.	.	.
8F\J	.	.	.	.	.	.
8F\L	.	.	.	.	.	.
8F\J	.	.	.	.	.	.
=60	=60	=60	=60	=60	=60	=60
4F\	2.r	2.r	2.r	4cc\	4ff/	.
4r	.	.	.	8cc\L	8ff/L	.
.	.	.	.	8cc\J	8ff/J	.
4r	.	.	.	8a\L	8ff/L	.
.	.	.	.	8cc\J	8ff/J	.
=61	=61	=61	=61	=61	=61	=61
4F\	2.r	2.r	2.r	4cc\	4aa/	.
4r	.	.	.	8cc\L	8ff/L	.
.	.	.	.	8cc\J	8ff/J	.
4r	.	.	.	8a\L	8ff/L	.
.	.	.	.	8cc\J	8ff/J	.
=62	=62	=62	=62	=62	=62	=62
2.F\	2.r	2.r	2.r	[2.cc\	(4aa/	.
.	.	.	.	.	4gg/)	.
.	.	.	.	.	4ff'/	.
=63	=63	=63	=63	=63	=63	=63
2c\	2.r	2.r	2.r	2.cc]\	(4gg/	4
.	.	.	.	.	4ff/)	.
4C/	.	.	.	.	4een'/	n
=64	=64	=64	=64	=64	=64	=64
8F\L	8a\L	2.r	4f/	4cc/	4f\ 4ff/	.
16F\L	16a\L	.	.	.	.	.
16F\JJ	16a\JJ	.	.	.	.	.
*	*	*	*	*v	*v	*
4F\	4a\	.	8ff\L	8ff\L	.
.	.	.	8f\J	8f\J	.
4f\	4a\	.	8f/L	8f/L	.
.	.	.	8f/J	8f/J	.
=65	=65	=65	=65	=65	=65
8F\L	8a\L	2.r	4f/	4f/	.
16F\L	16a\L	.	.	.	.
16F\JJ	16a\JJ	.	.	.	.
4F\	4a\	.	8ff\L	8ff\L	.
.	.	.	8f\J	8f\J	.
4f\	4a\	.	8f/L	8f/L	.
.	.	.	8f/J	8f/J	.
=66	=66	=66	=66	=66	=66
8F\L	8a\L	2.r	4f/	4f/	.
16F\L	16a\L	.	.	.	.
16F\JJ	16a\JJ	.	.	.	.
4F\	4a\	.	8f/L	8f/L	.
.	.	.	8cc/J	8cc/J	.
4f\	4a\	.	8b-/L	8b-/L	.
.	.	.	8a/J	8a/J	.
=67	=67	=67	=67	=67	=67
8C/L	8en\L	4c/	4g/	4g/	n
16C/L	16e\L	.	.	.	.
16C/JJ	16e\JJ	.	.	.	.
4C/	4e\	8cc/L	4r	4r	.
.	.	8c/J	.	.	.
4c\	4e\	8c/L	4r	4r	.
.	.	8c/J	.	.	.
=68	=68	=68	=68	=68	=68
8C/L	8en\L	4c/	4cc\	4cc\	.
16C/L	16e\L	.	.	.	.
16C/JJ	16e\JJ	.	.	.	.
4C/	4e\	8b-/L	8r	8r	7 n
.	.	8c/J	16dd\LL	16dd\LL	.
.	.	.	16een\JJ	16een\JJ	.
4c\	4e\	8c/L	16ff\LL	16ff\LL	.
.	.	.	16gg\	16gg\	.
.	.	8c/J	16aa\	16aa\	.
.	.	.	16bb-\JJ	16bb-\JJ	.
=69	=69	=69	=69	=69	=69
8C/L	8en\L	4c/	4ccc\	4ccc\	.
16C/L	16e\L	.	.	.	.
16C/JJ	16e\JJ	.	.	.	.
4C/	4e\	8c/L	4cc\	4cc\	.
.	.	8b-/J	.	.	.
4c\	4e\	8a/L	4r	4r	.
.	.	8g/J	.	.	.
*>S70	*>S70	*>S70	*>S70	*>S70	*>S70
!! Selfridge-Field edition.
=70	=70	=70	=70	=70	=70
[2.F\	[2.f\	4f/	8r	8r	.
.	.	.	8ff\L	8ff\L	.
.	.	4r	8een\	8een\	.
.	.	.	8dd\	8dd\	.
.	.	4r	8cc\	8cc\	.
.	.	.	8b-\J	8b-\J	.
=71	=71	=71	=71	=71	=71
2.F_\	2.f_\	8r	8a/L	8a/L	.
.	.	8ff\L	8dd/	8dd/	.
.	.	8een\	8cc/	8cc/	.
.	.	8dd\	8b-/	8b-/	.
.	.	8cc\	8a/	8a/	.
.	.	8b-\J	8g/J	8g/J	.
=72	=72	=72	=72	=72	=72
2.F\]	2.f\]	8a/L	8f/L	8f/L	.
.	.	8a/	8cc/	8cc/	.
.	.	8g/	8b-/	8b-/	.
.	.	8f/	8a/	8a/	.
.	.	8enx/	8g/	8g/	.
.	.	8d/J	8f/J	8f/J	.
*>A70	*>A70	*>A70	*>A70	*>A70	*>A70
!! Amsterdam print.
=70	=70	=70	=70	=70	=70
8F\L	8f\L	4f/	8r	8r	.
8F\	8f\	.	8ff\L	8ff\L	.
8F\	8f\	4r	8een\	8een\	.
8F\	8f\	.	8dd\	8dd\	.
8F\	8f\	4r	8cc\	8cc\	.
8F\J	8f\J	.	8b-\J	8b-\J	.
=71	=71	=71	=71	=71	=71
8F\L	8f\L	8r	8a/L	8a/L	.
8F\	8f\	8ff\L	8dd/	8dd/	.
8F\	8f\	8een\	8cc/	8cc/	.
8F\	8f\	8dd\	8b-/	8b-/	.
8F\	8f\	8cc\	8a/	8a/	.
8F\J	8f\J	8b-\J	8g/J	8g/J	.
=72	=72	=72	=72	=72	=72
8F\L	8f\L	8a/L	8f/L	8f/L	.
8F\	8f\	8a/	8cc/	8cc/	.
8F\	8f\	8g/	8b-/	8b-/	.
8F\	8f\	8f/	8a/	8a/	.
8F\	8f\	8e/	8g/	8g/	.
8F\J	8f\J	8d/J	8f/J	8f/J	.
*>etc5	*>etc5	*>etc5	*>etc5	*>etc5	*>etc5
=73	=73	=73	=73	=73	=73
4C/	4g\	4c/	4c/	4c/	n
8C/L	8c\L	8cc/L	8cc/L	8cc/L	.
8C/J	8c\J	8c/J	8c/J	8c/J	.
8C/L	8c\L	8c/L	8c/L	8c/L	.
8C/J	8c\J	8c/J	8c/J	8c/J	.
=74	=74	=74	=74	=74	=74
4C/	4c\	4c/	4c/	4c/	7 5
8C/L	8g\L	8b-/L	8b-/L	8b-/L	.
8C/J	8c\J	8c/J	8c/J	8c/J	.
8C/L	8c\L	8c/L	8c/L	8c/L	.
8C/J	8c\J	8c/J	8c/J	8c/J	.
=75	=75	=75	=75	=75	=75
4C/	4c\	4c/	4c/	4c/	6 4
8C/L	8f\L	8a/L	8a/L	8a/L	.
8C/J	8c\J	8c/J	8c/J	8c/J	.
8C/L	8c\L	8c/L	8c/L	8c/L	.
8C/J	8c\J	8c/J	8c/J	8c/J	.
=76	=76	=76	=76	=76	=76
4C/	4c\	4c/	4c/	4c/	5 n
8C/L	8e\L	8g/L	8g/L	8g/L	.
8C/J	8c\J	8c/J	8c/J	8c/J	.
8C/L	8c\L	8c/L	8c/L	8c/L	.
8C/J	8c\J	8c/J	8c/J	8c/J	.
=77	=77	=77	=77	=77	=77
2C/	2c\	2c/	2c/	2c/	.
4r	4r	4r	4r	4r	.
=78	=78	=78	=78	=78	=78
4F\	4A/	4f/	4f/	4f/	.
4r	4r	8r	8r	8r	.
.	.	16g/LL	16g/LL	16g/LL	.
.	.	16a/JJ	16a/JJ	16a/JJ	.
4r	4r	16b-\LL	16b-\LL	16b-\LL	.
.	.	16cc\	16cc\	16cc\	.
.	.	16dd\	16dd\	16dd\	.
.	.	16een\JJ	16een\JJ	16een\JJ	.
=79	=79	=79	=79	=79	=79
4F\	4A/	8ff\L	8ff\L	8ff\L	.
.	.	8f\J	8f\J	8f\J	.
4BB-/	4d\	4g/	4g/	4g/	6 5
4C/	4c\	4en/	4en/	4en/	n
=80	=80	=80	=80	=80	=80
4FF/	4A/	4f/	4f/	4f/	.
4r	4r	8r	8r	8r	.
.	.	16g/LL	16g/LL	16g/LL	.
.	.	16a/JJ	16a/JJ	16a/JJ	.
4r	4r	16b-\LL	16b-\LL	16b-\LL	.
.	.	16cc\	16cc\	16cc\	.
.	.	16dd\	16dd\	16dd\	.
.	.	16een\JJ	16een\JJ	16een\JJ	.
=81	=81	=81	=81	=81	=81
4F\	4A/	8ff\L	8ff\L	8ff\L	.
.	.	8f\J	8f\J	8f\J	.
4BB-/	4d\	4g/	4g/	4g/	6 5
4C/	4c\	4en/	4en/	4en/	n
=82	=82	=82	=82	=82	=82
2F\	4A/	4f/	4f/	8f\L 8cc/L	.
.	.	.	.	8a\ 8cc/	.
.	4r	4r	4r	8f\ 8cc/	.
.	.	.	.	8a\ 8cc/	.
4r	4r	4r	4r	8f\ 8cc/	.
.	.	.	.	8a\J 8cc/J	.
*>S83	*>S83	*>S83	*>S83	*>S83	*>S83
!! Selfridge-Field edition.
=83	=83	=83	=83	=83	=83
2BB-/	2.r	2.r	2.r	8f\L 8dd/L	.
.	.	.	.	8b-\ 8dd/	.
.	.	.	.	8f\ 8dd/	.
.	.	.	.	8b-\ 8dd/	.
4r	.	.	.	8f\ 8dd/	.
.	.	.	.	8b-\J 8dd/J	.
=84	=84	=84	=84	=84	=84
2F\	2.r	2.r	2.r	8f\L 8cc/L	.
.	.	.	.	8a\ 8cc/	.
.	.	.	.	8f\ 8cc/	.
.	.	.	.	8a\ 8cc/	.
4r	.	.	.	8f\ 8cc/	.
.	.	.	.	8a\J 8cc/J	.
=85	=85	=85	=85	=85	=85
2BB-/	2.r	2.r	2.r	8f\L 8dd/L	.
.	.	.	.	8b-\ 8dd/	.
.	.	.	.	8f\ 8dd/	.
.	.	.	.	8b-\ 8dd/	.
4r	.	.	.	8f\ 8dd/	.
.	.	.	.	8b-\J 8dd/J	.
=86	=86	=86	=86	=86	=86
2G\	2.r	2.r	2.r	8g\L 8dd/L	n
.	.	.	.	8bn\ 8dd/	.
.	.	.	.	8g\ 8dd/	.
.	.	.	.	8b\ 8dd/	.
4r	.	.	.	8g\ 8dd/	.
.	.	.	.	8b\J 8dd/J	.
=87	=87	=87	=87	=87	=87
2C/	2.r	2.r	2.r	8g\L 8ee-/L	.
.	.	.	.	8cc\ 8ee-/	.
.	.	.	.	8g\ 8ee-/	.
.	.	.	.	8cc\ 8ee-/	.
4r	.	.	.	8g\ 8ee-/	.
.	.	.	.	8cc\J 8ee-/J	.
=88	=88	=88	=88	=88	=88
2G\	2.r	2.r	2.r	8g\L 8dd/L	n
.	.	.	.	8bn\ 8dd/	.
.	.	.	.	8g\ 8dd/	.
.	.	.	.	8b\ 8dd/	.
4r	.	.	.	8g\ 8dd/	.
.	.	.	.	8b\J 8dd/J	.
=89	=89	=89	=89	=89	=89
2C/	2.r	2.r	2.r	8g\L 8ee-/L	.
.	.	.	.	8cc\ 8ee-/	.
.	.	.	.	8g\ 8ee-/	.
.	.	.	.	8cc\ 8ee-/	.
4r	.	.	.	8g\ 8ee-/	.
.	.	.	.	8cc\J 8ee-/J	.
=90	=90	=90	=90	=90	=90
2A\	2.r	2.r	2.r	8a\L 8een/L	n5 #
.	.	.	.	8cc#\ 8ee/	.
.	.	.	.	8a\ 8ee/	.
.	.	.	.	8cc#\ 8ee/	.
4r	.	.	.	8a\ 8ee/	.
.	.	.	.	8cc#\J 8ee/J	.
=91	=91	=91	=91	=91	=91
2D\	2.r	2.r	2.r	8a\L 8ff/L	.
.	.	.	.	8dd\ 8ff/	.
.	.	.	.	8a\ 8ff/	.
.	.	.	.	8dd\ 8ff/	.
4r	.	.	.	8a\ 8ff/	.
.	.	.	.	8dd\J 8ff/J	.
=92	=92	=92	=92	=92	=92
2A\	2.r	2.r	2.r	8a\L 8een/L	n5 #
.	.	.	.	8cc#\ 8ee/	.
.	.	.	.	8a\ 8ee/	.
.	.	.	.	8cc#\ 8ee/	.
4r	.	.	.	8a\ 8ee/	.
.	.	.	.	8cc#\J 8ee/J	.
=93	=93	=93	=93	=93	=93
2D\	2.r	2.r	2.r	8a\L 8ff/L	.
.	.	.	.	8dd\ 8ff/	.
.	.	.	.	8a\ 8ff/	.
.	.	.	.	8dd\ 8ff/	.
4r	.	.	.	8a\ 8ff/	.
.	.	.	.	8dd\J 8ff/J	.
*>D83	*>D83	*>D83	*>D83	*>D83	*>D83
!! Dresden manuscript.
=83	=83	=83	=83	=83	=83
8BB-/L	2.r	2.r	2.r	8f\L 8dd/L	.
8BB-/	.	.	.	8b-\ 8dd/	.
8BB-/	.	.	.	8f\ 8dd/	.
8BB-/J	.	.	.	8b-\ 8dd/	.
4r	.	.	.	8f\ 8dd/	.
.	.	.	.	8b-\J 8dd/J	.
=84	=84	=84	=84	=84	=84
8F\L	2.r	2.r	2.r	8f\L 8cc/L	.
8F\	.	.	.	8a\ 8cc/	.
8F\	.	.	.	8f\ 8cc/	.
8F\J	.	.	.	8a\ 8cc/	.
4r	.	.	.	8f\ 8cc/	.
.	.	.	.	8a\J 8cc/J	.
=85	=85	=85	=85	=85	=85
8BB-/L	2.r	2.r	2.r	8f\L 8dd/L	.
8BB-/	.	.	.	8b-\ 8dd/	.
8BB-/	.	.	.	8f\ 8dd/	.
8BB-/J	.	.	.	8b-\ 8dd/	.
4r	.	.	.	8f\ 8dd/	.
.	.	.	.	8b-\J 8dd/J	.
=86	=86	=86	=86	=86	=86
8G\L	2.r	2.r	2.r	8g\L 8dd/L	n
8G\	.	.	.	8bn\ 8dd/	.
8G\	.	.	.	8g\ 8dd/	.
8G\J	.	.	.	8b\ 8dd/	.
4r	.	.	.	8g\ 8dd/	.
.	.	.	.	8b\J 8dd/J	.
=87	=87	=87	=87	=87	=87
8C/L	2.r	2.r	2.r	8g\L 8ee-/L	.
8C/	.	.	.	8cc\ 8ee-/	.
8C/	.	.	.	8g\ 8ee-/	.
8C/J	.	.	.	8cc\ 8ee-/	.
4r	.	.	.	8g\ 8ee-/	.
.	.	.	.	8cc\J 8ee-/J	.
=88	=88	=88	=88	=88	=88
8G\L	2.r	2.r	2.r	8g\L 8dd/L	n
8G\	.	.	.	8bn\ 8dd/	.
8G\	.	.	.	8g\ 8dd/	.
8G\J	.	.	.	8b\ 8dd/	.
4r	.	.	.	8g\ 8dd/	.
.	.	.	.	8b\J 8dd/J	.
=89	=89	=89	=89	=89	=89
8C/L	2.r	2.r	2.r	8g\L 8ee-/L	.
8C/	.	.	.	8cc\ 8ee-/	.
8C/	.	.	.	8g\ 8ee-/	.
8C/J	.	.	.	8cc\ 8ee-/	.
4r	.	.	.	8g\ 8ee-/	.
.	.	.	.	8cc\J 8ee-/J	.
=90	=90	=90	=90	=90	=90
8A\L	2.r	2.r	2.r	8a\L 8een/L	n5 #
8A\	.	.	.	8cc#\ 8ee/	.
8A\	.	.	.	8a\ 8ee/	.
8A\J	.	.	.	8cc#\ 8ee/	.
4r	.	.	.	8a\ 8ee/	.
.	.	.	.	8cc#\J 8ee/J	.
=91	=91	=91	=91	=91	=91
8D\L	2.r	2.r	2.r	8a\L 8ff/L	.
8D\	.	.	.	8dd\ 8ff/	.
8D\	.	.	.	8a\ 8ff/	.
8D\J	.	.	.	8dd\ 8ff/	.
4r	.	.	.	8a\ 8ff/	.
.	.	.	.	8dd\J 8ff/J	.
=92	=92	=92	=92	=92	=92
8A\L	2.r	2.r	2.r	8a\L 8een/L	n5 #
8A\	.	.	.	8cc#\ 8ee/	.
8A\	.	.	.	8a\ 8ee/	.
8A\J	.	.	.	8cc#\ 8ee/	.
4r	.	.	.	8a\ 8ee/	.
.	.	.	.	8cc#\J 8ee/J	.
=93	=93	=93	=93	=93	=93
8D\L	2.r	2.r	2.r	8a\L 8ff/L	.
8D\	.	.	.	8dd\ 8ff/	.
8D\	.	.	.	8a\ 8ff/	.
8D\J	.	.	.	8dd\ 8ff/	.
4r	.	.	.	8a\ 8ff/	.
.	.	.	.	8dd\J 8ff/J	.
*>etc6	*>etc6	*>etc6	*>etc6	*>etc6	*>etc6
=94	=94	=94	=94	=94	=94
2.r	2.r	2.r	2.r	(12bb-\L	.
.	.	.	.	12aa\)	.
.	.	.	.	12bb-\J	.
.	.	.	.	(12gg\L	.
.	.	.	.	12ff\)	.
.	.	.	.	12gg\J	.
.	.	.	.	(12een\L	.
.	.	.	.	12dd\)	.
.	.	.	.	12ee\J	.
=95	=95	=95	=95	=95	=95
8c#\L	8cc#\L	8cc#\L	8cc#\L	8cc#\L	6 n
16Bn\L	16bn\L	16bn\L	16bn\L	16bn\L	.
16A\JJ	16a\JJ	16a\JJ	16a\JJ	16a\JJ	.
16G\LL	16g\LL	16g/LL	16g/LL	16g/LL	n
16F\	16f\	16f/	16f/	16f/	.
16En\	16en\	16en/	16en/	16en/	.
16D\JJ	16d\JJ	16d/JJ	16d/JJ	16d/JJ	.
8C#/	8c#\	8c#/	8c#/	8c#/	6 n
8r	8r	8r	8r	8r	.
=96	=96	=96	=96	=96	=96
2.r	2.r	2.r	2.r	(12aa\L	.
.	.	.	.	12gg\)	.
.	.	.	.	12aa\J	.
.	.	.	.	(12ff\L	.
.	.	.	.	12een\)	.
.	.	.	.	12ff\J	.
.	.	.	.	(12dd\L	.
.	.	.	.	12cc\)	.
.	.	.	.	12dd\J	.
=97	=97	=97	=97	=97	=97
8B-\L	8b-\L	8b-/L	8b-/L	8b-/L	.
16A\L	16a\L	16a/L	16a/L	16a/L	.
16G\JJ	16g\JJ	16g/JJ	16g/JJ	16g/JJ	.
16F\LL	16f\LL	16f/LL	16f/LL	16f/LL	.
16En\	16en\	16en/	16en/	16en/	.
16D\	16d\	16d/	16d/	16d/	.
16C\JJ	16c\JJ	16c/JJ	16c/JJ	16c/JJ	.
8BB-/	8B-/	8B-/	8B-/	8B-/	.
8r	8r	8r	8r	8r	.
=98	=98	=98	=98	=98	=98
2.r	2.r	2.r	2.r	(12gg\L	.
.	.	.	.	12ff\)	.
.	.	.	.	12gg\J	.
.	.	.	.	(12een\L	.
.	.	.	.	12dd\)	.
.	.	.	.	12ee\J	.
.	.	.	.	(12cc#\L	.
.	.	.	.	12bn\)	.
.	.	.	.	12cc#\J	.
=99	=99	=99	=99	=99	=99
8A\L	8a\L	8a/L	8a/L	8a/L	#
16G\L	16g\L	16g/L	16g/L	16g/L	.
16F\JJ	16f\JJ	16f/JJ	16f/JJ	16f/JJ	.
16En/LL	16en\LL	16en/LL	16en/LL	16en/LL	.
16D/	16d\	16d/	16d/	16d/	.
16C#/	16c#\	16c#/	16c#/	16c#/	.
16BBn/JJ	16Bn\JJ	16Bn/JJ	16Bn/JJ	16Bn/JJ	.
8AA/	8A/	8A/	8A/	8A/	#
8r	8r	8r	8r	8r	.
=100	=100	=100	=100	=100	=100
4F\	2.r	2.r	2.r	(12dd\L	6
.	.	.	.	12ff\	.
.	.	.	.	12aa\J)	.
4FF/	.	.	.	(12ddd\L	.
.	.	.	.	12aa\	.
.	.	.	.	12ff\J)	.
4F\	.	.	.	(12dd\L	.
.	.	.	.	12ff\	.
.	.	.	.	12aa\J)	.
=101	=101	=101	=101	=101	=101
4B-\	2.r	2.r	2.r	(12g\L	6
.	.	.	.	12b-\	.
.	.	.	.	12dd\J)	.
4BB-/	.	.	.	(12gg\L	.
.	.	.	.	12dd\	.
.	.	.	.	12b-\J)	.
4B-\	.	.	.	(12g\L	.
.	.	.	.	12b-\	.
.	.	.	.	12dd\J)	.
=102	=102	=102	=102	=102	=102
4En\	2.r	2.r	2.r	(12cc\L	6
.	.	.	.	12een\	.
.	.	.	.	12gg\J)	.
4EEn/	.	.	.	(12ccc\L	.
.	.	.	.	12gg\	.
.	.	.	.	12ee\J)	.
4E\	.	.	.	(12cc\L	.
.	.	.	.	12ee\	.
.	.	.	.	12gg\J)	.
=103	=103	=103	=103	=103	=103
4A\	2.r	2.r	2.r	(12f/L	6
.	.	.	.	12a/	.
.	.	.	.	12cc/J)	.
4AA/	.	.	.	(12ff\L	.
.	.	.	.	12cc\	.
.	.	.	.	12a\J)	.
4A\	.	.	.	(12f/L	.
.	.	.	.	12a/	.
.	.	.	.	12cc/J)	.
=104	=104	=104	=104	=104	=104
4D\	2.r	2.r	2.r	(12b-\L	6
.	.	.	.	12dd\	.
.	.	.	.	12ff\J)	.
4DD/	.	.	.	(12bb-\L	.
.	.	.	.	12ff\	.
.	.	.	.	12dd\J)	.
4D\	.	.	.	(12b-\L	.
.	.	.	.	12dd\	.
.	.	.	.	12ff\J)	.
=105	=105	=105	=105	=105	=105
4G\	2.r	2.r	2.r	(12e-/L	6
.	.	.	.	12g/	.
.	.	.	.	12b-/J)	.
4GG/	.	.	.	(12ee-\L	.
.	.	.	.	12b-\	.
.	.	.	.	12g\J)	.
4G\	.	.	.	(12e-/L	.
.	.	.	.	12g/	.
.	.	.	.	12b-/J)	.
=106	=106	=106	=106	=106	=106
4d\	2.r	2.r	2.r	(12f#/L	7 #
.	.	.	.	12a/	.
.	.	.	.	12cc/J)	.
4F#\	.	.	.	(12ee-\L	.
.	.	.	.	12cc\	.
.	.	.	.	12a\J)	.
4d\	.	.	.	(12f#/L	.
.	.	.	.	12a/	.
.	.	.	.	12cc/J)	.
=107	=107	=107	=107	=107	=107
4G\	2.r	2.r	2.r	(12bn\L	n
.	.	.	.	12dd\	.
.	.	.	.	12ff\J)	.
4GG/	.	.	.	(12aa-\L	.
.	.	.	.	12ff\	.
.	.	.	.	12dd\J)	.
4G\	.	.	.	(12b\L	.
.	.	.	.	12dd\	.
.	.	.	.	12ff\J)	.
=108	=108	=108	=108	=108	=108
4C/	2.r	2.r	2.r	(12ee-\L	.
.	.	.	.	12cc\	.
.	.	.	.	12ee-\J)	.
4D\	.	.	.	(12ff\L	.
.	.	.	.	12dd\	.
.	.	.	.	12ff\J)	.
4E-\	.	.	.	(12gg\L	.
.	.	.	.	12ee-\	.
.	.	.	.	12gg\J)	.
=109	=109	=109	=109	=109	=109
4F\	2.r	2.r	2.r	(12aa-\L	b
.	.	.	.	12ff\	.
.	.	.	.	12aa-\J)	.
4D\	.	.	.	(12ff\L	.
.	.	.	.	12dd\	.
.	.	.	.	12ff\J)	.
4F\	.	.	.	(12dd\L	.
.	.	.	.	12bn\	.
.	.	.	.	12dd\J)	.
=110	=110	=110	=110	=110	=110
4G\	2.r	2.r	2.r	(12f/L	7 n
.	.	.	.	12bn/	.
.	.	.	.	12dd/J)	.
4GG/	.	.	.	(12f/L	.
.	.	.	.	12b/	.
.	.	.	.	12dd/J)	.
4G\	.	.	.	(12f/L	.
.	.	.	.	12e-/	.
.	.	.	.	12d/J)	.
=111	=111	=111	=111	=111	=111
4C/	2.r	2.r	2.r	(12e-/L	.
.	.	.	.	12g/	.
.	.	.	.	12cc/J)	.
4G\	.	.	.	(12e-/L	6 4
.	.	.	.	12g/	.
.	.	.	.	12cc/J)	.
4GG/	.	.	.	(12d/L	5 n
.	.	.	.	12g/	.
.	.	.	.	12bn/J)	.
=112	=112	=112	=112	=112	=112
8C/L	8g\L	4ee-\	4cc\	4cc\	.
16C/L	16g\L	.	.	.	.
16C/JJ	16g\JJ	.	.	.	.
4C/	4g\	8gg\L	8ccc\L	8ccc\L	.
.	.	8ee-\J	8cc\J	8cc\J	.
4c\	4g\	8ee-\L	8cc\L	8cc\L	.
.	.	8ee-\J	8cc\J	8cc\J	.
=113	=113	=113	=113	=113	=113
8C/L	8g\L	4ee-\	4cc\	4cc\	.
16C/L	16g\L	.	.	.	.
16C/JJ	16g\JJ	.	.	.	.
4C/	4g\	8gg\L	8ccc\L	8ccc\L	.
.	.	8ee-\J	8cc\J	8cc\J	.
4c\	4g\	8ee-\L	8cc\L	8cc\L	.
.	.	8ee-\J	8cc\J	8cc\J	.
=114	=114	=114	=114	=114	=114
8C/L	8g\L	4ee-\	4cc\	4cc\	.
16C/L	16g\L	.	.	.	.
16C/JJ	16g\JJ	.	.	.	.
4C/	4g\	8gg\L	8ccc\L	8ccc\L	.
.	.	8ee-\J	8cc\J	8cc\J	.
4c\	4g\	8ee-\L	8cc\L	8cc\L	.
.	.	8ee-\J	8cc\J	8cc\J	.
=115	=115	=115	=115	=115	=115
8GG/L	8Bn/L	4dd\	4dd\	4dd\	n
16GG/L	16B/L	.	.	.	.
16GG/JJ	16B/JJ	.	.	.	.
4GG/	4B/	8ff\L	8bbn\L	8bbn\L	7 n
.	.	8dd\J	8ff\J	8ff\J	.
4G\	4B/	8dd\L	8ff\L	8ff\L	.
.	.	8dd\J	8ff\J	8ff\J	.
=116	=116	=116	=116	=116	=116
8GG/L	8Bn/L	4dd\	4dd\	4dd\	n
16GG/L	16B/L	.	.	.	.
16GG/JJ	16B/JJ	.	.	.	.
4GG/	4B/	8ff\L	8bbn\L	8bbn\L	7 n
.	.	8dd\J	8ff\J	8ff\J	.
4G\	4B/	8dd\L	8ff\L	8ff\L	.
.	.	8dd\J	8ff\J	8ff\J	.
=117	=117	=117	=117	=117	=117
8GG/L	8Bn/L	4dd\	4dd\	4dd\	n
16GG/L	16B/L	.	.	.	.
16GG/JJ	16B/JJ	.	.	.	.
4GG/	4B/	8ff\L	8bbn\L	8bbn\L	7 n
.	.	8dd\J	8ff\J	8ff\J	.
4G\	4B/	8dd\L	8ff\L	8ff\L	.
.	.	8dd\J	8ff\J	8ff\J	.
=118	=118	=118	=118	=118	=118
4C/	4G/	4cc\	4ee-\	4ee-\	.
8c\L	8cc\L	8cc/L	8cc/L	8cc/L	.
8C\J	8c\J	8c/J	8c/J	8c/J	.
8C/L	8c\L	8c/L	8c/L	8c/L	.
8C/J	8c\J	8c/J	8c/J	8c/J	.
=119	=119	=119	=119	=119	=119
4C/	4c\	4c/	4c/	4c/	7
8B-\L	8b-\L	8b-/L	8b-/L	8b-/L	.
8C\J	8c\J	8c/J	8c/J	8c/J	.
8C/L	8c\L	8c/L	8c/L	8c/L	.
8C/J	8c\J	8c/J	8c/J	8c/J	.
=120	=120	=120	=120	=120	=120
4C/	4c\	4c/	4c/	4c/	b6
8A-\L	8a-\L	8a-/L	8a-/L	8a-/L	.
8C\J	8c\J	8c/J	8c/J	8c/J	.
8C/L	8c\L	8c/L	8c/L	8c/L	.
8C/J	8c\J	8c/J	8c/J	8c/J	.
=121	=121	=121	=121	=121	=121
4C/	4c\	4c/	4c/	4c/	.
8G\L	8g\L	8g/L	8g/L	8g/L	.
8C\J	8c\J	8c/J	8c/J	8c/J	.
8C/L	8c\L	8c/L	8c/L	8c/L	.
8C/J	8c\J	8c/J	8c/J	8c/J	.
=122	=122	=122	=122	=122	=122
4D\	4d\	8f#/L	8f#/L	8f#/L	#
.	.	8d/	8d/	8d/	.
4D\	4d\	8g/	8g/	8g/	6 4
.	.	8d/	8d/	8d/	.
4D\	4d\	8a/	8a/	8a/	5 #
.	.	8d/J	8d/J	8d/J	.
=123	=123	=123	=123	=123	=123
4G\	4g\	8b-/L	8b-/L	8b-/L	.
.	.	8g/J	8g/J	8g/J	.
4d\	4dd\	4dd\	4dd\	4dd\	4
4D\	4d\	4d/	4d/	4d/	#
=124	=124	=124	=124	=124	=124
*	*	*	*	*^	*
4G\	4g\	4g/	4g/	(16dd\LL	8gg/L	.
.	.	.	.	16b-\)	.	.
.	.	.	.	(16dd\	8gg/J	.
.	.	.	.	16b-\JJ)	.	.
4r	4r	4r	4r	(16dd\LL	8gg/L	.
.	.	.	.	16b-\)	.	.
.	.	.	.	(16dd\	8gg/J	.
.	.	.	.	16b-\JJ)	.	.
4r	4r	4r	4r	(16dd\LL	8gg/L	.
.	.	.	.	16b-\)	.	.
.	.	.	.	(16dd\	8gg/J	.
.	.	.	.	16b-\JJ)	.	.
=125	=125	=125	=125	=125	=125	=125
4G\	2.r	2.r	2.r	8g\L	8b-/L	.
.	.	.	.	8d\	8b-/	.
4r	.	.	.	8g\	8b-/	.
.	.	.	.	8d\	8b-/	.
4r	.	.	.	8g\	8b-/	.
.	.	.	.	8d\J	8b-/J	.
=126	=126	=126	=126	=126	=126	=126
4G\	2.r	2.r	2.r	(16dd\LL	8gg/L	.
.	.	.	.	16b-\)	.	.
.	.	.	.	(16dd\	8gg/J	.
.	.	.	.	16b-\JJ)	.	.
4r	.	.	.	(16dd\LL	8gg/L	.
.	.	.	.	16b-\)	.	.
.	.	.	.	(16dd\	8gg/J	.
.	.	.	.	16b-\JJ)	.	.
4r	.	.	.	(16dd\LL	8gg/L	.
.	.	.	.	16b-\)	.	.
.	.	.	.	(16dd\	8gg/J	.
.	.	.	.	16b-\JJ)	.	.
=127	=127	=127	=127	=127	=127	=127
4G\	2.r	2.r	2.r	8g\L	8b-/L	.
.	.	.	.	8d\	8b-/	.
4r	.	.	.	8g\	8b-/	.
.	.	.	.	8d\	8b-/	.
4r	.	.	.	8g\	8b-/	.
.	.	.	.	8d\J	8b-/J	.
=128	=128	=128	=128	=128	=128	=128
*	*	*	*	*v	*v	*
4G\	2.r	2.r	2.r	16gg\LL	.
.	.	.	.	16bb-\	.
.	.	.	.	16aa\	.
.	.	.	.	16bb-\JJ	.
4r	.	.	.	16gg\LL	.
.	.	.	.	16bb-\	.
.	.	.	.	16aa\	.
.	.	.	.	16bb-\JJ	.
4r	.	.	.	16gg\LL	.
.	.	.	.	16bb-\	.
.	.	.	.	16aa\	.
.	.	.	.	16gg\JJ	.
=129	=129	=129	=129	=129	=129
4D\	2.r	2.r	2.r	8aa\L	#
.	.	.	.	8ff#\J	.
8d\L	.	.	.	4dd\	.
8D\J	.	.	.	.	.
8D\L	.	.	.	4r	.
8D\J	.	.	.	.	.
=130	=130	=130	=130	=130	=130
4D\	2.r	2.r	2.r	(16bb-\LL	6
.	.	.	.	16aa\)	.
.	.	.	.	(16gg\	.
.	.	.	.	16ff\JJ)	.
4r	.	.	.	(16bb-\LL	.
.	.	.	.	16aa\)	.
.	.	.	.	(16gg\	.
.	.	.	.	16ff\JJ)	.
4r	.	.	.	(16bb-\LL	.
.	.	.	.	16aa\)	.
.	.	.	.	(16gg\	.
.	.	.	.	16ff\JJ)	.
=131	=131	=131	=131	=131	=131
4E-\	4e-\	4e-/	4e-/	4gg\	.
8e-\L	8e-\L	8ee-/L	8ee-/L	8ee-/L	.
8E-\J	8e-\J	8e-/J	8e-/J	8e-/J	.
8E-\L	8e-\L	8e-/L	8e-/L	8e-/L	.
8E-\J	8e-\J	8e-/J	8e-/J	8e-/J	.
=132	=132	=132	=132	=132	=132
4En\	4en\	4en/	4en/	(16ccc\LL	.
.	.	.	.	16bb-\)	.
.	.	.	.	(16aa\	.
.	.	.	.	16gg\JJ)	.
4r	4r	4r	4r	(16ccc\LL	.
.	.	.	.	16bb-\)	.
.	.	.	.	(16aa\	.
.	.	.	.	16gg\JJ)	.
4r	4r	4r	4r	(16ccc\LL	.
.	.	.	.	16bb-\)	.
.	.	.	.	(16aa\	.
.	.	.	.	16gg\JJ)	.
=133	=133	=133	=133	=133	=133
4F\	4f\	4f/	4f/	4aa\	.
8f\L	8f\L	8ff\L	8ff\L	8ff\L	.
8F\J	8f\J	8f\J	8f\J	8f\J	.
8F\L	8f\L	8f/L	8f/L	8f/L	.
8F\J	8f\J	8f/J	8f/J	8f/J	.
=134	=134	=134	=134	=134	=134
4F#\	4f#\	4f#/	4f#/	(16ddd\LL	.
.	.	.	.	16ccc\)	.
.	.	.	.	(16bb-\	.
.	.	.	.	16aa\JJ)	.
4r	4r	4r	4r	(16ddd\LL	.
.	.	.	.	16ccc\)	.
.	.	.	.	(16bb-\	.
.	.	.	.	16aa\JJ)	.
4r	4r	4r	4r	(16ddd\LL	.
.	.	.	.	16ccc\)	.
.	.	.	.	(16bb-\	.
.	.	.	.	16aa\JJ)	.
=135	=135	=135	=135	=135	=135
4G\	4g\	4g/	4g/	4bb-\	.
8g\L	8g\L	8gg\L	8gg\L	8gg\L	.
8G\J	8g\J	8g\J	8g\J	8g\J	.
8G\L	8g\L	8g/L	8g/L	8g/L	.
8G\J	8g\J	8g/J	8g/J	8g/J	.
=136	=136	=136	=136	=136	=136
4G\	4g\	4g/	4g/	(16eee-\LL	.
.	.	.	.	16ddd\)	.
.	.	.	.	(16ccc\	.
.	.	.	.	16bb-\JJ)	.
4r	4r	4r	4r	(16eee-\LL	.
.	.	.	.	16ddd\)	.
.	.	.	.	(16ccc\	.
.	.	.	.	16bb-\JJ)	.
4r	4r	4r	4r	(16eee-\LL	.
.	.	.	.	16ddd\)	.
.	.	.	.	(16ccc\	.
.	.	.	.	16bb-\JJ)	.
=137	=137	=137	=137	=137	=137
4F\	2.r	2.r	2.r	8a/L	.
.	.	.	.	8f/J	.
8r	.	.	.	(8c/L	.
8F\	.	.	.	8f/J	.
8FF/L	.	.	.	4a/)	.
8F/J	.	.	.	.	.
=138	=138	=138	=138	=138	=138
4B-\	2.r	2.r	2.r	8b-/L	.
.	.	.	.	8f/J	.
8r	.	.	.	(8B-/L	.
8BB-/	.	.	.	8f/J	.
8D/L	.	.	.	4b-\)	6
8BB-/J	.	.	.	.	.
=139	=139	=139	=139	=139	=139
4F\	2.r	2.r	2.r	8cc/L	.
.	.	.	.	8f/J	.
8r	.	.	.	(8A/L	.
8F\	.	.	.	8f/J	.
8A\L	.	.	.	4cc\)	6
8F\J	.	.	.	.	.
=140	=140	=140	=140	=140	=140
4B-\	2.r	2.r	2.r	8dd/L	.
.	.	.	.	8f/J	.
8r	.	.	.	(8B-/L	.
8B-\	.	.	.	8f/J	.
8D/L	.	.	.	4dd\)	6
8BB-/J	.	.	.	.	.
=141	=141	=141	=141	=141	=141
4F\	2.r	2.r	2.r	8ee-\L	.
.	.	.	.	8f\J	.
8r	.	.	.	(8A/L	.
8F\	.	.	.	8f/J	.
8A\L	.	.	.	4ee-\)	6 5
8F\J	.	.	.	.	.
=142	=142	=142	=142	=142	=142
4B-\	2.r	2.r	2.r	(8ee-\L	6 4
.	.	.	.	8cc\J	.
8BB-/L	.	.	.	2dd\)	5 3
8C/J	.	.	.	.	.
8D/L	.	.	.	.	.
8C/J	.	.	.	.	.
=143	=143	=143	=143	=143	=143
4BB-/	2.r	2.r	2.r	(16bb-\LL	.
.	.	.	.	16aa\)	.
.	.	.	.	(16gg\	.
.	.	.	.	16ff\JJ)	.
4r	.	.	.	(16gg\LL	.
.	.	.	.	16ff\)	.
.	.	.	.	(16ee-\	.
.	.	.	.	16dd\JJ)	.
4r	.	.	.	(16ee-\LL	.
.	.	.	.	16dd\)	.
.	.	.	.	(16cc\	.
.	.	.	.	16b-\JJ)	.
=144	=144	=144	=144	=144	=144
2.r	2.r	2.r	2.r	(16cc/LL	.
.	.	.	.	16b-/)	.
.	.	.	.	(16a/	.
.	.	.	.	16g/JJ)	.
.	.	.	.	(16a/LL	.
.	.	.	.	16g/)	.
.	.	.	.	(16f/	.
.	.	.	.	16e-/JJ)	.
.	.	.	.	(16f/LL	.
.	.	.	.	16e-/)	.
.	.	.	.	(16d/	.
.	.	.	.	16c/JJ)	.
=145	=145	=145	=145	=145	=145
4BB-/	2.r	2.r	2.r	8d\L	.
.	.	.	.	8ff\	.
8r	.	.	.	8bb-\	.
8BB-/	.	.	.	8dd\	.
8F/L	.	.	.	8cc\	.
8FF/J	.	.	.	8aa\J	.
=146	=146	=146	=146	=146	=146
4BB-/	2.r	2.r	2.r	4bb-\	.
8B-\L	.	.	.	4r	.
8BB-\J	.	.	.	.	.
8BB-/L	.	.	.	4r	.
8BB-/J	.	.	.	.	.
=147	=147	=147	=147	=147	=147
4BB-/	2.r	2.r	2.r	(16bb-\LL	.
.	.	.	.	16aa\)	.
.	.	.	.	(16gg\	.
.	.	.	.	16ff\JJ)	.
4r	.	.	.	(16gg\LL	.
.	.	.	.	16ff\)	.
.	.	.	.	(16ee-\	.
.	.	.	.	16dd\JJ)	.
4r	.	.	.	(16ee-\LL	.
.	.	.	.	16dd\)	.
.	.	.	.	(16cc\	.
.	.	.	.	16b-\JJ)	.
=148	=148	=148	=148	=148	=148
2.r	2.r	2.r	2.r	(16cc/LL	.
.	.	.	.	16b-/)	.
.	.	.	.	(16a/	.
.	.	.	.	16g/JJ)	.
.	.	.	.	(16a/LL	.
.	.	.	.	16g/)	.
.	.	.	.	(16f/	.
.	.	.	.	16e-/JJ)	.
.	.	.	.	(16f/LL	.
.	.	.	.	16e-/)	.
.	.	.	.	(16d/	.
.	.	.	.	16c/JJ)	.
=149	=149	=149	=149	=149	=149
4BB-/	2.r	2.r	2.r	8d\L	.
.	.	.	.	8ff\	.
8r	.	.	.	8bb-\	.
8BB-/	.	.	.	8dd\	.
8F/L	.	.	.	8cc\	.
8FF/J	.	.	.	8aa\J	.
*>S150	*>S150	*>S150	*>S150	*>S150	*>S150
!! Selfridge-Field edition.
=150	=150	=150	=150	=150	=150
[2.BB-/	[2.B-/	2.r	8r	8bb-\L	.
.	.	.	8bb-\L	8bb-\	.
.	.	.	8aa\	8aa\	.
.	.	.	8gg\	8gg\	.
.	.	.	8ff\	8ff\	.
.	.	.	8ee-\J	8ee-\J	.
=151	=151	=151	=151	=151	=151
2.BB-_/	2.B-_/	8r	8dd\L	8dd\L	.
.	.	8bb-\L	8gg\	8gg\	.
.	.	8aa\	8ff\	8ff\	.
.	.	8gg\	8ee-\	8ee-\	.
.	.	8ff\	8dd\	8dd\	.
.	.	8ee-\J	8cc\J	8cc\J	.
=152	=152	=152	=152	=152	=152
2.BB-/]	2.B-/]	8dd\L	8b-\L	8b-\L	.
.	.	8ff\	8dd\	8dd\	.
.	.	8ee-\	8cc\	8cc\	.
.	.	8dd\	8b-\	8b-\	.
.	.	8cc\	8a\	8a\	.
.	.	8b-\J	8g\J	8g\J	.
*>D150	*>D150	*>D150	*>D150	*>D150	*>D150
!! Dresden manuscript.
=150	=150	=150	=150	=150	=150
4BB-/	[2.B-/	2.r	8r	8bb-\L	.
.	.	.	8bb-\L	8bb-\	.
8BB-/L	.	.	8aa\	8aa\	.
8BB-/	.	.	8gg\	8gg\	.
8BB-/	.	.	8ff\	8ff\	.
8BB-/J	.	.	8ee-\J	8ee-\J	.
=151	=151	=151	=151	=151	=151
8BB-/L	2.B-_/	8r	8dd\L	8dd\L	.
8BB-/	.	8bb-\L	8gg\	8gg\	.
8BB-/	.	8aa\	8ff\	8ff\	.
8BB-/	.	8gg\	8ee-\	8ee-\	.
8BB-/	.	8ff\	8dd\	8dd\	.
8BB-/J	.	8ee-\J	8cc\J	8cc\J	.
=152	=152	=152	=152	=152	=152
8BB-/L	2.B-/]	8dd\L	8b-\L	8b-\L	.
8BB-/	.	8ff\	8dd\	8dd\	.
8BB-/	.	8ee-\	8cc\	8cc\	.
8BB-/J	.	8dd\	8b-\	8b-\	.
4BB-/	.	8cc\	8a\	8a\	.
.	.	8b-\J	8g\J	8g\J	.
*>etc7	*>etc7	*>etc7	*>etc7	*>etc7	*>etc7
=153	=153	=153	=153	=153	=153
4F\	4c\	4a/	4f/	4f/	.
8F\L	8a\L	8ff\L	8ff\L	8ff\L	.
8F\J	8f\J	8f\J	8f\J	8f\J	.
8F\L	8f\L	8f/L	8f/L	8f/L	.
8F\J	8f\J	8f/J	8f/J	8f/J	.
=154	=154	=154	=154	=154	=154
4F\	4f\	4f/	4f/	4f/	7 5
8F\L	8cc\L	8ee-\L	8ee-\L	8ee-\L	.
8F\J	8f\J	8f\J	8f\J	8f\J	.
8F\L	8f\L	8f/L	8f/L	8f/L	.
8F\J	8f\J	8f/J	8f/J	8f/J	.
=155	=155	=155	=155	=155	=155
4F\	4f\	4f/	4f/	4f/	6 4
8F\L	8b-\L	8dd/L	8dd/L	8dd/L	.
8F\J	8f\J	8f/J	8f/J	8f/J	.
8F\L	8f\L	8f/L	8f/L	8f/L	.
8F\J	8f\J	8f/J	8f/J	8f/J	.
=156	=156	=156	=156	=156	=156
4F\	4f\	4f/	4f/	4f/	5 3
8F\L	8a\L	8cc/L	8cc/L	8cc/L	.
8F\J	8f\J	8f/J	8f/J	8f/J	.
8F\L	8f\L	8f/L	8f/L	8f/L	.
8F\J	8f\J	8f/J	8f/J	8f/J	.
=157	=157	=157	=157	=157	=157
4F\	4f\	4f/	4f/	4f/	.
4r	4r	4r	4r	4r	.
4r	4r	4r	4r	4r	.
=158	=158	=158	=158	=158	=158
8BB-\L	8d\L	4b-\	4b-\	4b-\	.
8B-\	8dd\	.	.	.	.
8F\	8a\	8r	8r	8r	.
8E-\	8g\	16cc\LL	16cc\LL	16cc\LL	.
.	.	16dd\JJ	16dd\JJ	16dd\JJ	.
8D\	8f\	16ee-\LL	16ee-\LL	16ee-\LL	6
.	.	16ff\	16ff\	16ff\	.
8C\J	8e-\J	16gg\	16gg\	16gg\	.
.	.	16aa\JJ	16aa\JJ	16aa\JJ	.
=159	=159	=159	=159	=159	=159
4BB-/	4d\	8bb-\L	8bb-\L	8bb-\L	.
.	.	8b-\J	8b-\J	8b-\J	.
4E-\	4g\	4cc\	4cc\	4cc\	.
4F\	4c\	4a/	4a/	4a/	.
=160	=160	=160	=160	=160	=160
8BB-\L	8d\L	4B-/	4B-/	4B-/	.
8B-\	8dd\	.	.	.	.
8F\	8a\	8r	8r	8r	.
8E-\	8g\	16c/LL	16c/LL	16c/LL	.
.	.	16d/JJ	16d/JJ	16d/JJ	.
8D\	8f\	16e-/LL	16e-/LL	16e-/LL	6
.	.	16f/	16f/	16f/	.
8C\J	8e-\J	16g/	16g/	16g/	.
.	.	16a/JJ	16a/JJ	16a/JJ	.
=161	=161	=161	=161	=161	=161
4BB-/	4d\	8b-/L	8b-/L	8b-/L	.
.	.	8B-/J	8B-/J	8B-/J	.
4E-\	4G/	4c/	4c/	4c/	6 5
4F\	4C/	4A/	4A/	4A/	.
=162	=162	=162	=162	=162	=162
2.BB-;/	2.D;/	2.B-;/	2.B-;/	2.B-;/	.
==|!	==|!	==|!	==|!	==|!	==|!
*-	*-	*-	*-	*-	*-
!!!CDT: 1678/3/4/-1741/7/28
!!!OCY: Italia
!!!ODE: Count Wenzeslaus von Morzin of Bohemia; Count Wenceslas of Morzin
!!!ODT: 1725///
!!!OPC: Venezia; Venice
!!!AGN: concerto
!!!AST: baroque
!!!AMT: simple triple
!!!PPR: Michel-Charles Le Ce`ne
!!!PC#: Le Cene No. 521
!!!PDT: 1725///
!!!PPP: Amsterdam
!!!SCT: RV 362
!!!SMA1: The cooperation of the following libraries is gratefully acknowledged:
!!!SMA2: Saechsische Landesbibliothek, Dresden; Biblioteca Nazionale
!!!SMA3: Universitaria, Turin; Henry Watson Music Library, Manchester.
!!!YOR: New York: Dover Publications, Inc. 1995
!!!AIN: cello cemba viola violn
!!!EEV: 1.0
!!!RDT: 1994/5/6/
!!!YER: 1996/10/31/
!!!YEP: Center for Computer Assisted Research in the Humanities
!!!YEN: United States of America
!!!EFL: 1/3
!!!ENC: Edmund Correia, Jr.
!!!EED: Eleanor Selfridge-Field
